src/containers/site/SiteInvestmentScreen/asset/investment_feature_5.svg

<svg width="81" height="67" viewBox="0 0 81 67" fill="none" xmlns="http://www.w3.org/2000/svg">
<path d="M66 19C71.5228 19 76 14.7467 76 9.5C76 4.25329 71.5228 0 66 0C60.4772 0 56 4.25329 56 9.5C56 14.7467 60.4772 19 66 19Z" fill="url(#paint0_linear)"/>
<path d="M64.9877 23C56.1576 23 49 29.643 49 37.8383V57.5162C49 58.338 49.7133 59 50.5988 59H79.4012C80.2867 59 81 58.338 81 57.5162V37.8383C80.9754 29.6658 73.8178 23 64.9877 23Z" fill="url(#paint1_linear)"/>
<path d="M15 19C20.5228 19 25 14.7467 25 9.5C25 4.25329 20.5228 0 15 0C9.47715 0 5 4.25329 5 9.5C5 14.7467 9.47715 19 15 19Z" fill="url(#paint2_linear)"/>
<path d="M15.9877 23C7.15757 23 0 29.643 0 37.8383V57.5162C0 58.338 0.713297 59 1.59877 59H30.4012C31.2867 59 32 58.338 32 57.5162V37.8383C31.9754 29.6658 24.8178 23 15.9877 23Z" fill="url(#paint3_linear)"/>
<path fill-rule="evenodd" clip-rule="evenodd" d="M31 15C31 9.48113 35.4811 5 41 5C46.5189 5 51 9.48113 51 15C51 20.5189 46.5189 25 41 25C35.4811 25 31 20.5189 31 15ZM47.2264 15C47.2264 11.5566 44.4198 8.77358 41 8.77358C37.5802 8.77358 34.7736 11.5566 34.7736 15C34.7736 18.4434 37.5802 21.2264 41 21.2264C44.4434 21.2264 47.2264 18.4434 47.2264 15Z" fill="url(#paint4_linear)"/>
<path d="M40.6193 29.7931C32.0716 29.7931 25.1431 36.3155 25.1431 44.3621V63.6827C25.1431 64.4896 25.8335 65.1396 26.6907 65.1396H54.5716C55.4288 65.1396 56.1193 64.4896 56.1193 63.6827V44.3621C56.0954 36.3155 49.1669 29.7931 40.6193 29.7931Z" fill="white"/>
<path fill-rule="evenodd" clip-rule="evenodd" d="M23.2144 63.6828C23.2144 65.4759 24.762 66.9328 26.6667 66.9328H54.5715C56.4524 66.9328 58.0001 65.4759 57.9763 63.6828V44.3621C57.9763 35.3517 50.1667 28 40.5953 28C31.0239 28 23.2144 35.3293 23.2144 44.3621V63.6828ZM54.1905 44.3621V63.3465H27.0477V44.3621C27.0477 37.3241 33.1429 31.5862 40.6191 31.5862C48.0953 31.5862 54.1905 37.3241 54.1905 44.3621Z" fill="url(#paint5_linear)"/>
<defs>
<linearGradient id="paint0_linear" x1="56.0068" y1="18.9987" x2="75.9982" y2="18.9987" gradientUnits="userSpaceOnUse">
<stop stop-color="#FFB300"/>
<stop offset="1" stop-color="#FF8E37"/>
</linearGradient>
<linearGradient id="paint1_linear" x1="48.9957" y1="58.9977" x2="80.9847" y2="58.9977" gradientUnits="userSpaceOnUse">
<stop stop-color="#FFB300"/>
<stop offset="1" stop-color="#FF8E37"/>
</linearGradient>
<linearGradient id="paint2_linear" x1="5.00177" y1="18.9987" x2="24.9932" y2="18.9987" gradientUnits="userSpaceOnUse">
<stop stop-color="#FFB300"/>
<stop offset="1" stop-color="#FF8E37"/>
</linearGradient>
<linearGradient id="paint3_linear" x1="-0.00932206" y1="58.9977" x2="31.9797" y2="58.9977" gradientUnits="userSpaceOnUse">
<stop stop-color="#FFB300"/>
<stop offset="1" stop-color="#FF8E37"/>
</linearGradient>
<linearGradient id="paint4_linear" x1="31.0045" y1="24.9808" x2="50.9954" y2="24.9808" gradientUnits="userSpaceOnUse">
<stop stop-color="#5C8BFC"/>
<stop offset="1" stop-color="#84B0FF"/>
</linearGradient>
<linearGradient id="paint5_linear" x1="23.2315" y1="66.9381" x2="58.0066" y2="66.9381" gradientUnits="userSpaceOnUse">
<stop stop-color="#5C8BFC"/>
<stop offset="1" stop-color="#84B0FF"/>
</linearGradient>
</defs>
</svg>

<svg width="81" height="67" fill="none" xmlns="http://www.w3.org/2000/svg"><path d="M66 19c5.523 0 10-4.253 10-9.5S71.523 0 66 0 56 4.253 56 9.5 60.477 19 66 19z" fill="url(#paint0_linear)"/><path d="M64.988 23C56.158 23 49 29.643 49 37.838v19.678c0 .822.713 1.484 1.599 1.484H79.4c.886 0 1.599-.662 1.599-1.484V37.838C80.975 29.666 73.818 23 64.988 23z" fill="url(#paint1_linear)"/><path d="M15 19c5.523 0 10-4.253 10-9.5S20.523 0 15 0 5 4.253 5 9.5 9.477 19 15 19z" fill="url(#paint2_linear)"/><path d="M15.988 23C7.158 23 0 29.643 0 37.838v19.678C0 58.338.713 59 1.599 59H30.4c.886 0 1.599-.662 1.599-1.484V37.838C31.975 29.666 24.818 23 15.988 23z" fill="url(#paint3_linear)"/><path fill-rule="evenodd" clip-rule="evenodd" d="M31 15c0-5.519 4.481-10 10-10s10 4.481 10 10-4.481 10-10 10-10-4.481-10-10zm16.226 0c0-3.443-2.806-6.226-6.226-6.226S34.774 11.557 34.774 15 37.58 21.226 41 21.226A6.22 6.22 0 0047.226 15z" fill="url(#paint4_linear)"/><path d="M40.62 29.793c-8.548 0-15.477 6.523-15.477 14.57v19.32c0 .807.69 1.457 1.548 1.457h27.88c.858 0 1.548-.65 1.548-1.457v-19.32c-.024-8.047-6.952-14.57-15.5-14.57z" fill="#fff"/><path fill-rule="evenodd" clip-rule="evenodd" d="M23.214 63.683c0 1.793 1.548 3.25 3.453 3.25H54.57c1.881 0 3.43-1.457 3.405-3.25v-19.32c0-9.011-7.81-16.363-17.38-16.363-9.572 0-17.382 7.33-17.382 16.362v19.32zm30.977-19.32v18.983H27.047V44.362c0-7.038 6.095-12.776 13.571-12.776s13.572 5.738 13.572 12.776z" fill="url(#paint5_linear)"/><defs><linearGradient id="paint0_linear" x1="56.007" y1="18.999" x2="75.998" y2="18.999" gradientUnits="userSpaceOnUse"><stop stop-color="#FFB300"/><stop offset="1" stop-color="#FF8E37"/></linearGradient><linearGradient id="paint1_linear" x1="48.996" y1="58.998" x2="80.985" y2="58.998" gradientUnits="userSpaceOnUse"><stop stop-color="#FFB300"/><stop offset="1" stop-color="#FF8E37"/></linearGradient><linearGradient id="paint2_linear" x1="5.002" y1="18.999" x2="24.993" y2="18.999" gradientUnits="userSpaceOnUse"><stop stop-color="#FFB300"/><stop offset="1" stop-color="#FF8E37"/></linearGradient><linearGradient id="paint3_linear" x1="-.009" y1="58.998" x2="31.98" y2="58.998" gradientUnits="userSpaceOnUse"><stop stop-color="#FFB300"/><stop offset="1" stop-color="#FF8E37"/></linearGradient><linearGradient id="paint4_linear" x1="31.005" y1="24.981" x2="50.995" y2="24.981" gradientUnits="userSpaceOnUse"><stop stop-color="#5C8BFC"/><stop offset="1" stop-color="#84B0FF"/></linearGradient><linearGradient id="paint5_linear" x1="23.232" y1="66.938" x2="58.007" y2="66.938" gradientUnits="userSpaceOnUse"><stop stop-color="#5C8BFC"/><stop offset="1" stop-color="#84B0FF"/></linearGradient></defs></svg>
